X: 1
T: the Auld Man's Mare's Dead
C: Patie Burnie
R: strathspey
Z: 2014 John Chambers <jc:trillian.mit.edu>
M: C
L: 1/8
K: Em
F2 |\
"Em"E2 E2 E2 d>B | "D"A<F E>D D>E F>D |\
"Em"G>F G>A "D"B<G A>B | "(Bm)"d>B A>F "Em"E2 :|
|: B>d |\
"Em"e2 e<B e2 e<B | "D"d2 d<f D>E F<D |\
"Em"e>g B>e B2 "D"A<d | "Em"B>A "D"d>F "Em"E2 :|
